www/assets/icons/cabin.svg

<svg xmlns="http://www.w3.org/2000/svg" width="24" height="24" viewBox="0 0 24 24" fill='currentColor'><path d="M10 2c0 1.66-1.34 3-3 3-.55 0-1 .45-1 1H4c0-1.66 1.34-3 3-3 .55 0 1-.45 1-1zm2 2L6 8.58V7H4v3.11L1 12.4l1.21 1.59L4 12.62V22h16v-9.38l1.79 1.36L23 12.4zm1.94 4h-3.89L12 6.52zm-6.5 2h9.12L18 11.1v.9H6v-.9zM18 14v2H6v-2zM6 20v-2h12v2z"/></svg>

<svg width="24" height="24" viewBox="0 0 24 24" xmlns="http://www.w3.org/2000/svg" fill='currentColor'><path d="M10 2C10 3.66 8.66 5 7 5C6.45 5 6 5.45 6 6H4C4 4.34 5.34 3 7 3C7.55 3 8 2.55 8 2H10ZM12 4L6 8.58V7H4V10.11L1 12.4L2.21 13.99L4 12.62V22H20V12.62L21.79 13.98L23 12.4L12 4ZM13.94 8H10.05L12 6.52L13.94 8ZM7.44 10H16.56L18 11.1V12H6V11.1L7.44 10ZM18 14V16H6V14H18ZM6 20V18H18V20H6Z"/></svg>
